X:1
T:The Cruel Brother
M:4/4
L:1/4
K:C
G/2-A/2| BB/2-A/2 G G| c c A c| d3/2 d/2 c e| d3| d| e d A B| d B A G/2G/2|\
 B- B A B| d A G||
